!!!!SEGMENT: pl-wtm--r-730-29-m_moniuszko-stanislaw--cudzoziemiec.krn
!!!cenid: 18xx:1709
!!!COM: Moniuszko, Stanisław
!!!COM-rismid: pe30008351
!!!CDT: 1819/05/05-1872/06/04
!!!CNT: Polish
!!!OTL: Cudzoziemiec
!!!PDT:
!!!AGN: Secular
!!!SMS-siglum: PL-Wtm
!!!SMS-shelfmark: R 730/29/M
!!!SMS-shelfwork: W
!!!SMS-variant:
!!!SMS-altvar:
!!!NIFC-rismid: 1001099841
!!!URL-scan: http://repozytorium.nifc.pl/skany/pl-wtm-nut--r730m-1-43
!!!ONB-nifc: Skan 0034, No. 781
**kern	**kern	**dynam	**kern	**text	**text	**text	**text
*part2	*part2	*part2	*part1	*part1	*part1	*part1	*part1
*staff3	*staff2	*	*staff1	*staff1	*staf1	*part1	*part1
*Ipiano	*Iempty	*	*Isoprn	*	*	*	*
*I"Piano	*	*	*I"Soprano	*	*	*	*
*I'P-no	*	*	*I'S.	*	*	*	*
*clefF4	*clefG2	*	*clefG2	*	*	*	*
*k[f#c#g#]	*k[f#c#g#]	*	*k[f#c#g#]	*	*	*	*
*A:	*A:	*	*A:	*	*	*	*
*M3/8	*M3/8	*	*M3/8	*	*	*	*
=1	=1	=1	=1	=1	=1	=1	=1
!	!	!	!LO:TX:t=P:problem:all\right:global	!	!	!	!
!	!	!	!LO:TX:t=P:problem:znaki: f# zamiast ff#, g# zamiast gg#:global	!	!	!	!
!	!	!	!LO:TX:a:t=Andantino.	!	!	!	!
16E/LL 16AA'/	16e/LL 16c#'/	p	8r	.	.	.	.
16E/JJ 16AA'/	16e/JJ 16c#'/	.	.	.	.	.	.
!	!	!	!LO:TX:t=P:problem:znak segno na kresce taktowej:global	!	!	!	!
[4E/ [4AA;</	4c#/ 4A;/	.	4r;	.	.	.	.
=2||	=2||	=2||	=2||	=2||	=2||	=2||	=2||
!LO:TX:a:t=[segno]	!LO:TX:a:t=[segno]	!	!LO:TX:a:t=[segno]	!	!	!	!
8E/]L 8AA/]	8r	.	8r	.	.	.	.
8E/J 8AA'/	8r	.	8r	.	.	.	.
16A'\LL	16cc#/LL 16a'/	.	16cc#\	I. „Dziew-	II.	III.	IV.
16A'\JJ	16b/JJ 16g#'/	.	16b\	-czę,	.	.	.
=3	=3	=3	=3	=3	=3	=3	=3
*^	*	*	*	*	*	*	*
8A'\L	4rAyy	(8dd/L 8a/ 8f#/	>	8dd\	kwiat-	.	.	.
8A'\J	.	8cc#/J 8a/ 8e/)	]	8cc#\	-ku!	.	.	.
16c#'/LL	16A\LL	16a/LL 16e'/	.	16a/	spoj-	.	.	.
16B'/JJ	16A\JJ	16b/JJ 16g#/ 16e'/	.	16b/	-rzyj	.	.	.
=4	=4	=4	=4	=4	=4	=4	=4	=4
(<8d/L	8A\L	(8b/L 8g#/ 8e/	>	8b/	mi-	.	.	.
8c#/J)	8A\J	8a/J 8e/)	]	8a/	-le,	.	.	.
16A\LL 16D\	8ryy	16f#/LL 16d/	.	16f#/	prze-	.	.	.
16B\JJ 16D\	.	16g#/JJ 16fn/	.	16g#/	-cież	.	.	.
*v	*v	*	*	*	*	*	*	*
=5	=5	=5	=5	=5	=5	=5	=5
.	.	.	8qb/	.	.	.	.
(16A\LL 16C#\	8a/L 8e/	.	16a/	ser-	.	.	.
16E\JJ	.	.	16g#/	-ce	.	.	.
8A\)	8cc#/ 8a/ 8e/	.	8a/	twe	.	.	.
8d#X\	8ff#/J 8ccn/ 8a/	.	8ff#\	nie	.	.	.
=6	=6	=6	=6	=6	=6	=6	=6
(8e\L	8ee/L [>8b/ 8g#/	>	8ee\	ska-	.	.	.
!	!	!	!LO:TX:t=P:problem:wykreślona kreska taktowa	!	!	!	!
8E\J)	8b/]J 8g#/	]	8b\	-ła,	.	.	.
16A/LL 16AA'/	16cc#/LL 16e'/	.	(16cc#\	przy-	.	.	.
16G#/JJ 16AA'/	16b/JJ 16e'/	.	16b\)	.	.	.	.
=7	=7	=7	=7	=7	=7	=7	=7
*	*	*	*^	*	*	*	*
(8F#/L 8AA/	(8dd/L 8a/	>	8dd\	8ryy	-naj-	.	.	.
*	*	*	*	*cue	*	*	*	*
8E/J 8AA/)	8cc#/J 8a/)	]	8cc#\	16cc#/	-mniej	.	.	.
.	.	.	.	16e/	mnie	.	.	.
*	*	*	*	*Xcue	*	*	*	*
16A\LL	16a/LL 16e/ 16c#'/	.	16a/	8ryy	ko-	.	.	.
16E\JJ	16b/JJ 16g#/ 16d'/	.	16b/	.	-chaj	.	.	.
*	*	*	*v	*v	*	*	*	*
=8	=8	=8	=8	=8	=8	=8	=8
(8E\L	8b/L 8g#/ 8d/	>	8b/	ty-	.	.	.
8F#\J)	8a/J 8f#/ 8c#/	]	8a/	-le	.	.	.
8D#X\	8a/ 8f#/ 8B#X/	.	16a/	że-	.	.	.
.	.	.	16b/	-byś	.	.	.
=9	=9	=9	=9	=9	=9	=9	=9
*	*^	*	*	*	*	*	*
8E\	(<16cc#/LL	8e\ 8c#\	.	16cc#\	słów	.	.	.
.	16a/JJ)	.	.	16a\	mych	.	.	.
8r	8e/	4ryy	.	8.ee\	po-	.	.	.
(8e\	[8dd\ [8b\ [<8g#\	.	>	.	.	.	.	.
!	!	!	!	!LO:TX:t=P:problem:16ee poprawione na 16dd	!	!	!	!
.	.	.	.	16dd\	-słu-	.	.	.
*	*v	*v	*	*	*	*	*	*
!!LO:LB:g=original
=10	=10	=10	=10	=10	=10	=10	=10
8f#\)	(8dd\]L 8b\] 8g#\]	]	8dd\	-cha-	.	.	.
8r	8cc#\J 8a\)	.	8cc#\	-ła,	.	.	.
16D/LL 16DD/	16a/LL 16f#/	.	16a\	że-	.	.	.
16D/JJ 16DD/	16b/JJ 16f#/	.	16b\	-byś	.	.	.
=11	=11	=11	=11	=11	=11	=11	=11
8E/ 8EE/	8cc#/ 8a/ 8e/	.	16cc#\	słów	.	.	.
.	.	.	16a\	mych	.	.	.
8r	8r	.	8.ff#\	po-	.	.	.
(8E\	((8g#/ (8d/ 8B/	.	.	.	.	.	.
.	.	.	16ee\	-słu-	.	.	.
=12	=12	=12	=12	=12	=12	=12	=12
8AA/)	8a/ 8c#/) 8A/))	.	8ee\	-cha-	.	.	.
8r	8r	.	8a/	-ła”.	.	.	.
16E/LL 16AA/	16e/LL 16c#/	.	8r	.	.	.	.
16E/JJ 16AA/	16e/JJ 16c#/	.	.	.	.	.	.
=13	=13	=13	=13	=13	=13	=13	=13
!	!	!	!LO:TX:t=P:problem:znak segno na kresce taktowej:global	!	!	!	!
!i	!LO:TX:b:t=D.S.	!	!LO:TX:b:t=D.S.	!	!	!	!
((4.E/ 4.AA;/	4.c#/ 4.A;/	.	4.r;	.	.	.	.
!LO:TX:a:t=[segno]	!LO:TX:a:t=[segno]	!	!LO:TX:a:t=[segno]	!	!	!	!
==	==	==	==	==	==	==	==
*-	*-	*-	*-	*-	*-	*-	*-
!!!system-decoration: {s1(s2,s3)}
!!!RDF**kern: > = above
!!!RDF**kern: < = below
!!!EED: Leszek Kubiak
!!!EST: 2021-04-20
!!!ENC: Katarzyna Serwa
!!!END: 2021-04-01
